X:1
T:Rogha Liadroma (Leitrim Fancy)
M:6/8
L:1/8
Q:80
C:arr.Kent Hiestand
S:Jig
K:HP
{g}ded{g}cec | \
{gBd}B2f{e}fe{g}f | \
{g}ded{g}cec |
{gAGAG}A2e{A}ec{d}A | \
{g}ded{g}cec | \
{gBd}B2f{e}fe{g}f |
{g}def{ag}afd | \
{g}ced{g}cB{G}A :: \
{Gdc}d2fafa |
fec{g}ecB | \
{Gdc}d2fafd | \
{g}efd{g}cB{G}A |
{Gdc}d2fafa | \
fec{g}efg | \
{ag}agf{g}edc |
{g}efd{g}cB{G}A :|
